frontend/src/assets/img/ddtools-logo.svg

<svg xmlns="http://www.w3.org/2000/svg" xmlns:xlink="http://www.w3.org/1999/xlink" width="500" zoomAndPan="magnify" viewBox="0 0 375 374.999991" height="500" preserveAspectRatio="xMidYMid meet" version="1.0"><path fill="#ffffff" d="M 187.5 0 C 169.808594 0 152.726562 2.636719 136.464844 7.289062 L 161.03125 71.246094 C 169.554688 69.300781 178.398438 68.183594 187.5 68.183594 C 196.601562 68.183594 205.445312 69.300781 213.96875 71.246094 L 238.535156 7.289062 C 222.273438 2.65625 205.191406 0 187.5 0 Z M 104.667969 19.640625 C 79.101562 32.359375 56.820312 50.695312 39.449219 73.074219 L 97.144531 109.796875 C 98.777344 107.90625 100.53125 106.125 102.273438 104.335938 L 102.273438 104.503906 C 102.785156 103.652344 103.652344 102.785156 104.503906 102.273438 L 104.203125 102.273438 C 111.660156 94.96875 120.039062 88.617188 129.207031 83.460938 Z M 270.332031 19.640625 L 245.792969 83.496094 C 254.917969 88.632812 263.195312 95.015625 270.628906 102.273438 L 270.496094 102.273438 C 271.347656 102.785156 272.214844 103.652344 272.726562 104.503906 L 272.726562 104.238281 C 275.566406 107.144531 278.28125 110.171875 280.816406 113.359375 L 339.878906 78.902344 C 321.960938 53.878906 298.097656 33.449219 270.332031 19.640625 Z M 21.039062 101.773438 C 7.695312 127.527344 0 156.628906 0 187.5 L 68.183594 187.5 C 68.183594 170.046875 72.050781 153.507812 78.800781 138.5625 Z M 187.5 102.273438 C 181.703125 102.273438 175.910156 102.777344 170.453125 103.96875 L 170.453125 340.910156 L 204.546875 340.910156 L 204.546875 103.96875 C 199.089844 102.777344 193.296875 102.273438 187.5 102.273438 Z M 357.089844 108.296875 L 298.027344 142.753906 C 303.636719 156.597656 306.816406 171.683594 306.816406 187.5 L 375 187.5 C 375 159.203125 368.441406 132.417969 357.089844 108.296875 Z M 136.363281 119.316406 C 115.738281 134.828125 102.273438 159.714844 102.273438 187.5 L 102.273438 340.910156 L 136.363281 340.910156 Z M 238.636719 119.316406 L 238.636719 340.910156 L 272.726562 340.910156 L 272.726562 187.5 C 272.726562 159.714844 259.261719 134.828125 238.636719 119.316406 Z M 0 221.589844 L 0 289.773438 L 68.183594 289.773438 L 68.183594 221.589844 Z M 306.816406 221.589844 L 306.816406 289.773438 L 375 289.773438 L 375 221.589844 Z M 0 323.863281 L 0 375 L 68.183594 375 L 68.183594 323.863281 Z M 306.816406 323.863281 L 306.816406 375 L 375 375 L 375 323.863281 Z M 306.816406 323.863281 " fill-opacity="1" fill-rule="nonzero"/></svg>

<svg width="500" viewBox="0 0 375 375" height="500" version="1.0" xmlns="http://www.w3.org/2000/svg">
  <g id="door">
    <path style="fill:#fff" d="M187.5 102.273c-5.797 0-11.59.504-17.047 1.696V340.91h34.094V103.97c-5.457-1.192-11.25-1.696-17.047-1.696zm-51.137 17.043c-20.625 15.512-34.09 40.399-34.09 68.184v153.41h34.09zm102.274 0V340.91h34.09V187.5c0-27.785-13.465-52.672-34.09-68.184z" />
  </g>
  <path style="fill:#fff" d="M187.5 0c-17.691 0-34.773 2.637-51.035 7.29l24.566 63.956c8.524-1.945 17.367-3.062 26.469-3.062s17.945 1.117 26.469 3.062L238.535 7.29C222.273 2.656 205.191 0 187.5 0Zm-82.832 19.64C79.102 32.36 56.82 50.696 39.449 73.075l57.696 36.723c1.632-1.89 3.386-3.672 5.128-5.461v.168a6.99 6.99 0 0 1 2.23-2.23h-.3c7.457-7.305 15.836-13.657 25.004-18.813zm165.664 0-24.539 63.856c9.125 5.137 17.402 11.52 24.836 18.777h-.133a6.99 6.99 0 0 1 2.23 2.23v-.265c2.84 2.907 5.555 5.934 8.09 9.121l59.063-34.457C321.96 53.88 298.098 33.45 270.332 19.641ZM21.039 101.774C7.695 127.527 0 156.63 0 187.5h68.184c0-17.453 3.867-33.992 10.617-48.938zm336.05 6.524-59.062 34.457c5.61 13.844 8.79 28.93 8.79 44.746H375c0-28.297-6.559-55.082-17.91-79.203zM0 221.59v68.183h68.184V221.59zm306.816 0v68.183H375V221.59zM0 323.863V375h68.184v-51.137zm306.816 0V375H375v-51.137z" />
</svg>
